X: 3
T: Bonaparte's Retreat
M: 4/4
L: 1/8
R: breakdown / reel
K: DMaj
|: FA |\ 
d2 ec d2 AB | dBAF EDFA |\ 
d2 fc d/e/d AG | FDEG FD :|
|: EG |\
FDFD ADFD | E^DEF G/A/G EG |\ 
FDFD A/B/A FD | E^DEG F=D :|
